X:192
T:Flickorna dansa p{\aa} t{\aa}
R:sl\"angpolska
H:jfr #191, #207, #224
A:Sk{\aa}ne
Z:id:hn-sp-192
M:3/4
L:1/16
K:A
e2fe dcBA a2a2 | e2fe dcBA d2d2 | fece edBd dcAc |
cBAG A2E2 C2A,2 | e2fe dcBA a2a2 | e2fe dcBA d2d2 |
fece edBd dcAc | cBAG G2A2 A4 :||: B3B B2B2 B2d2 |
d3c c2A2 A2c2 | d3d d2f2 a2f2 | f2e2 e2fe dcBA |
e2fe dcBA a2a2 | e2fe dcBA d2d2 | fece edBd dcAc | cBAG G2A2 A4 :|

